public/svg/flag.svg

<svg xmlns="http://www.w3.org/2000/svg" xmlns:bx="https://boxy-svg.com" width="82px" height="66px" viewbox="0 0 82 66" version="1.1">
  <g id="smb" transform="matrix(1, 0, 0, 1, 6, 6)" fill-rule="nonzero">
    <path d="M57.4369625,-2 L12.5630375,-2 C7.62820119,-2 5.86681923,-1.41548743 4.07025832,-0.45467615 C2.11952904,0.588585286 0.588585286,2.11952904 -0.45467615,4.07025832 C-1.41548743,5.86681923 -2,7.62820119 -2,12.5630375 L-2,41.4369625 C-2,46.3717988 -1.41548743,48.1331808 -0.45467615,49.9297417 C0.588585286,51.880471 2.11952904,53.4114147 4.07025832,54.4546762 C5.86681923,55.4154874 7.62820119,56 12.5630375,56 L57.4369625,56 C62.3717988,56 64.1331808,55.4154874 65.9297417,54.4546762 C67.880471,53.4114147 69.4114147,51.880471 70.4546762,49.9297417 C71.4154874,48.1331808 72,46.3717988 72,41.4369625 L72,12.5630375 C72,7.62820119 71.4154874,5.86681923 70.4546762,4.07025832 C69.4114147,2.11952904 67.880471,0.588585286 65.9297417,-0.45467615 C64.1331808,-1.41548743 62.3717988,-2 57.4369625,-2 Z" id="Rectangle-3" stroke="#FFFFFF" stroke-width="4" style="fill: rgb(0, 0, 0);"></path>
    <path d="M70,27 L70,41.4369625 C70,45.8054044 69.5451545,47.3895069 68.6910498,48.986544 C67.836945,50.583581 66.583581,51.836945 64.986544,52.6910498 C63.3895069,53.5451545 61.8054044,54 57.4369625,54 L12.5630375,54 C8.19459564,54 6.61049308,53.5451545 5.01345604,52.6910498 C3.41641901,51.836945 2.163055,50.583581 1.30895025,48.986544 C0.454845494,47.3895069 0,45.8054044 0,41.4369625 L0,27 L70,27 Z" id="Path" style="fill: rgb(196, 51, 75);"></path>
    <rect x="1.933" y="27.085" width="4.136" style="fill: rgb(216, 216, 216); stroke-width: 4px; stroke: rgb(255, 224, 71);" height="0.084"></rect>
    <rect x="29.01" y="27.043" width="38.99" style="fill: rgb(216, 216, 216); stroke-width: 4px; stroke: rgb(255, 224, 71);" height="0.084"></rect>
    <rect x="25" y="19.219" width="43" style="fill: rgb(216, 216, 216); stroke-width: 4px; stroke: rgb(255, 224, 71); transform-origin: -3.687px 19.261px;" height="0.084"></rect>
    <rect x="25" y="35" width="43" style="fill: rgb(216, 216, 216); stroke-width: 4px; stroke: rgb(255, 224, 71); transform-origin: -3.687px 35.042px;" height="0.084"></rect>
    <rect x="1.958" y="19.2" width="7.9" style="fill: rgb(216, 216, 216); stroke-width: 4px; stroke: rgb(255, 224, 71); transform-origin: -3.312px 19.242px;" height="0.084"></rect>
    <rect x="1.958" y="35" width="7.9" style="fill: rgb(216, 216, 216); stroke-width: 4px; stroke: rgb(255, 224, 71); transform-origin: -3.312px 35.042px;" height="0.084"></rect>
    <circle style="stroke-width: 0px; stroke: rgb(255, 224, 71); fill: rgb(255, 224, 71);" cx="17.293" cy="27.184" r="7.261"></circle>
    <circle style="stroke: rgb(255, 224, 71); fill: rgba(216, 216, 216, 0); stroke-width: 4px;" cx="17.264" cy="27.122" r="9.99"></circle>
    <path style="stroke: rgb(0, 0, 0); stroke-width: 0px; fill: rgb(196, 51, 75);" d="M 9.836 28.999 C 7.262 28.989 24.592 28.938 24.336 28.945 C 24.539 29.263 24.264 29.604 24.143 29.997 C 23.978 30.534 23.515 30.837 23.836 30.946 C 20.568 30.934 10.853 30.923 10.712 30.945"></path>
    <path style="stroke: rgb(0, 0, 0); stroke-width: 0px;" d="M 10.002 25.141 C 7.428 25.15 24.758 25.201 24.502 25.194 C 24.705 24.881 24.43 24.546 24.309 24.159 C 24.144 23.632 23.681 23.334 24.002 23.227 C 20.734 23.238 11.019 23.249 10.878 23.227"></path>
  </g>
</svg>

<svg id="eWOijc7KbeF1" xmlns="http://www.w3.org/2000/svg" xmlns:xlink="http://www.w3.org/1999/xlink" viewBox="0 0 82 66" shape-rendering="geometricPrecision" text-rendering="geometricPrecision" project-id="dd8a4d9accfe4b6a98f3d5861fd03567" export-id="f23f0b9f031142ee800ea2801562e86a" cached="false"><g transform="translate(6 6)"><path d="M57.436963,-2h-44.873925c-4.934837,0-6.696219.584513-8.49278,1.545324-1.950729,1.043261-3.481673,2.574205-4.524934,4.524934C-1.415487,5.866819,-2,7.628201,-2,12.563038v28.873925c0,4.934836.584513,6.696218,1.545324,8.492779c1.043261,1.950729,2.574205,3.481673,4.524934,4.524934C5.866819,55.415487,7.628201,56,12.563038,56h44.873925c4.934836,0,6.696218-.584513,8.492779-1.545324c1.950729-1.043261,3.481673-2.574205,4.524934-4.524934C71.415487,48.133181,72,46.371799,72,41.436963v-28.873925c0-4.934837-.584513-6.696219-1.545324-8.49278-1.043261-1.950729-2.574205-3.481673-4.524934-4.524934C64.133181,-1.415487,62.371799,-2,57.436963,-2Z" stroke="#fff" stroke-width="4"/><path d="M70,27v14.436963c0,4.368441-.454845,5.952544-1.30895,7.549581s-2.107469,2.850401-3.704506,3.704506-3.18114,1.30895-7.549581,1.30895h-44.873925c-4.368442,0-5.952545-.454845-7.549582-1.30895s-2.850401-2.107469-3.704506-3.704506-1.30895-3.18114-1.30895-7.549581L0,27h70Z" fill="#002d4d"/><rect width="4.136" height="0.084" rx="0" ry="0" transform="translate(1.933 27.085)" fill="#d8d8d8" stroke="#ffe047" stroke-width="4"/><rect width="38.99" height="0.084" rx="0" ry="0" transform="translate(29.01 27.043)" fill="#d8d8d8" stroke="#ffe047" stroke-width="4"/><rect width="43" height="0.084" rx="0" ry="0" transform="translate(25 19.219)" fill="#d8d8d8" stroke="#ffe047" stroke-width="4"/><rect width="43" height="0.084" rx="0" ry="0" transform="translate(25 35)" fill="#d8d8d8" stroke="#ffe047" stroke-width="4"/><rect width="7.9" height="0.084" rx="0" ry="0" transform="translate(1.958 19.2)" fill="#d8d8d8" stroke="#ffe047" stroke-width="4"/><rect width="7.9" height="0.084" rx="0" ry="0" transform="translate(1.958 35)" fill="#d8d8d8" stroke="#ffe047" stroke-width="4"/><circle r="9.99" transform="translate(17.264 27.122)" fill="rgba(216,216,216,0)" stroke="#ffe047" stroke-width="4"/><circle r="7.261" transform="translate(17.293 27.184)" fill="#ffe047" stroke="#ffe047" stroke-width="0"/><path d="M9.836,28.999c-2.574-.01,14.756-.061,14.5-.054.203.318-.072.659-.193,1.052-.165.537-.628.84-.307.949-3.268-.012-12.983-.023-13.124-.001" fill="#002344" stroke="#000" stroke-width="0"/><path d="M10.002,25.141c-2.574.009,14.756.06,14.5.053.203-.313-.072-.648-.193-1.035-.165-.527-.628-.825-.307-.932-3.268.011-12.983.022-13.124,0" stroke="#000" stroke-width="0"/><g transform="translate(.18992-.254161)"><ellipse rx="0.283904" ry="0.283904" transform="translate(12.07408 26.254159)" stroke-width="0"/><ellipse rx="0.283904" ry="0.283904" transform="translate(13.07408 26.254159)" stroke-width="0"/><ellipse rx="0.283904" ry="0.283904" transform="translate(13.07408 27.254159)" stroke-width="0"/><ellipse rx="0.283904" ry="0.283904" transform="translate(12.07408 27.254159)" stroke-width="0"/><ellipse rx="0.283904" ry="0.283904" transform="translate(12.07408 28.254159)" stroke-width="0"/><ellipse rx="0.283904" ry="0.283904" transform="translate(13.07408 28.254159)" stroke-width="0"/><ellipse rx="0.283904" ry="0.283904" transform="translate(15.07408 28.254159)" stroke-width="0"/><ellipse rx="0.283904" ry="0.283904" transform="translate(16.07408 28.254159)" stroke-width="0"/><ellipse rx="0.283904" ry="0.283904" transform="translate(15.07408 26.254159)" stroke-width="0"/><ellipse rx="0.283904" ry="0.283904" transform="translate(18.07408 26.254159)" stroke-width="0"/><ellipse rx="0.283904" ry="0.283904" transform="translate(20.07408 26.254159)" stroke-width="0"/><ellipse rx="0.283904" ry="0.283904" transform="translate(20.07408 27.254159)" stroke-width="0"/><ellipse rx="0.283904" ry="0.283904" transform="translate(20.07408 28.254159)" stroke-width="0"/><ellipse rx="0.283904" ry="0.283904" transform="translate(22.07408 28.254159)" stroke-width="0"/><ellipse rx="0.283904" ry="0.283904" transform="translate(22.07408 27.254159)" stroke-width="0"/><ellipse rx="0.283904" ry="0.283904" transform="translate(22.07408 26.254159)" stroke-width="0"/></g></g></svg>
